X:182
T:Dick's Maggot
C:Henry Playford, 1703
%%MIDI gchord fcHcfc
%%MIDI beat 100 95 80
S:Colin Hume's website,  colinhume.com  - chords can also be printed below the stave.
Q:1/2=108
%%MIDI chordname 7sus 0 5 7 10
M:3/2
L:1/8
K:G
P:A
|: "G"g2d2- d2B2- "D7"B2A2 | "G"Bcd2 "D7"ABc2 "G"B4 | "G"g2d2- d2B2- "D7"B2A2 | "Em"Bcd2 "D7"G2F2 "G"G4 :|
P:B
"D"f2a2- a2f2- f2d2 | "Em"gab2 "A7"efg2 "D"f4 | "F#m"f2a2- a2f2- "Bm"f2d2 | "Em"def2 "A7"AB^c2 "D7"d4 |
"G"Bcd2 "G7"Bcd2 "C"e4 | "A"efg2 "A7"efg2 "D"f4 | "G"g2d2- d2B2- "C"B2c2 | "D7sus"A4- "D7"A4 "G"G4 |]

